client/public/img/game/fall/residues/dormant_oak_tree_residue.svg

<?xml version="1.0" encoding="UTF-8" standalone="no"?>
<!-- Created with Inkscape (http://www.inkscape.org/) -->

<svg
   width="240"
   height="240"
   viewBox="0 0 63.500002 63.500007"
   version="1.1"
   id="svg1062"
   xmlns="http://www.w3.org/2000/svg"
   xmlns:svg="http://www.w3.org/2000/svg"
   xmlns:rdf="http://www.w3.org/1999/02/22-rdf-syntax-ns#"
   xmlns:cc="http://creativecommons.org/ns#"
   xmlns:dc="http://purl.org/dc/elements/1.1/">
  <defs
     id="defs1059" />
  <g
     id="layer1"
     transform="translate(8.3393664,10.854856)">
    <path
       style="fill:#4d3f36;fill-opacity:1;stroke:#29180d;stroke-width:0.79375;stroke-linejoin:round;stroke-dasharray:none;stroke-opacity:1"
       id="path1620"
       d="M 14.949099,9.1020719 12.335946,11.271303 11.489719,14.560379 8.1080634,14.24648 5.1839617,15.973835 3.0147308,13.360683 -0.27434587,12.514455 0.03955379,9.1327998 -1.6878013,6.2086981 0.92535078,4.0394672 1.7715784,0.75039054 5.1532339,1.0642902 8.0773355,-0.66306492 10.246566,1.9500872 l 3.289077,0.8462276 -0.3139,3.3816555 z"
       transform="matrix(1.6576083,0,0,1.6576083,12.419618,8.2055165)" />
    <path
       style="fill:#5f4316;fill-opacity:0;fill-rule:nonzero;stroke:#29180d;stroke-width:0.30749;stroke-linejoin:miter;stroke-dasharray:none;stroke-opacity:1"
       id="path1620-8"
       d="M 14.949099,9.1020719 12.335946,11.271303 11.489719,14.560379 8.1080634,14.24648 5.1839617,15.973835 3.0147308,13.360683 -0.27434587,12.514455 0.03955379,9.1327998 -1.6878013,6.2086981 0.92535078,4.0394672 1.7715784,0.75039054 5.1532339,1.0642902 8.0773355,-0.66306492 10.246566,1.9500872 l 3.289077,0.8462276 -0.3139,3.3816555 z"
       transform="matrix(1.4263092,0,0,1.4263092,13.953281,9.9762002)" />
    <path
       style="fill:#5f4316;fill-opacity:0;fill-rule:nonzero;stroke:#29180d;stroke-width:0.30749;stroke-linejoin:miter;stroke-dasharray:none;stroke-opacity:1"
       id="path1620-8-5"
       d="M 14.949099,9.1020719 12.335946,11.271303 11.489719,14.560379 8.1080634,14.24648 5.1839617,15.973835 3.0147308,13.360683 -0.27434587,12.514455 0.03955379,9.1327998 -1.6878013,6.2086981 0.92535078,4.0394672 1.7715784,0.75039054 5.1532339,1.0642902 8.0773355,-0.66306492 10.246566,1.9500872 l 3.289077,0.8462276 -0.3139,3.3816555 z"
       transform="matrix(1.2807363,0,0,1.2807363,14.918523,11.090617)" />
    <path
       style="fill:#5f4316;fill-opacity:0;fill-rule:nonzero;stroke:#29180d;stroke-width:0.30749;stroke-linejoin:miter;stroke-dasharray:none;stroke-opacity:1"
       id="path1620-8-5-7"
       d="M 14.949099,9.1020719 12.335946,11.271303 11.489719,14.560379 8.1080634,14.24648 5.1839617,15.973835 3.0147308,13.360683 -0.27434587,12.514455 0.03955379,9.1327998 -1.6878013,6.2086981 0.92535078,4.0394672 1.7715784,0.75039054 5.1532339,1.0642902 8.0773355,-0.66306492 10.246566,1.9500872 l 3.289077,0.8462276 -0.3139,3.3816555 z"
       transform="matrix(1.1429956,0,0,1.1429956,15.831834,12.145075)" />
    <path
       style="fill:#5f4316;fill-opacity:0;fill-rule:nonzero;stroke:#29180d;stroke-width:0.30749;stroke-linejoin:miter;stroke-dasharray:none;stroke-opacity:1"
       id="path1620-8-5-7-3"
       d="M 14.949099,9.1020719 12.335946,11.271303 11.489719,14.560379 8.1080634,14.24648 5.1839617,15.973835 3.0147308,13.360683 -0.27434587,12.514455 0.03955379,9.1327998 -1.6878013,6.2086981 0.92535078,4.0394672 1.7715784,0.75039054 5.1532339,1.0642902 8.0773355,-0.66306492 10.246566,1.9500872 l 3.289077,0.8462276 -0.3139,3.3816555 z"
       transform="matrix(1.0048732,0,0,1.0048732,16.747675,13.202455)" />
    <path
       style="fill:#5f4316;fill-opacity:0;fill-rule:nonzero;stroke:#29180d;stroke-width:0.30749;stroke-linejoin:miter;stroke-dasharray:none;stroke-opacity:1"
       id="path1620-8-5-7-3-2"
       d="M 14.949099,9.1020719 12.335946,11.271303 11.489719,14.560379 8.1080634,14.24648 5.1839617,15.973835 3.0147308,13.360683 -0.27434587,12.514455 0.03955379,9.1327998 -1.6878013,6.2086981 0.92535078,4.0394672 1.7715784,0.75039054 5.1532339,1.0642902 8.0773355,-0.66306492 10.246566,1.9500872 l 3.289077,0.8462276 -0.3139,3.3816555 z"
       transform="matrix(0.84836116,0,0,0.84836116,17.785451,14.400615)" />
    <path
       style="fill:#5f4316;fill-opacity:0;fill-rule:nonzero;stroke:#29180d;stroke-width:0.30749;stroke-linejoin:miter;stroke-dasharray:none;stroke-opacity:1"
       id="path1620-8-5-7-3-2-7"
       d="M 14.949099,9.1020719 12.335946,11.271303 11.489719,14.560379 8.1080634,14.24648 5.1839617,15.973835 3.0147308,13.360683 -0.27434587,12.514455 0.03955379,9.1327998 -1.6878013,6.2086981 0.92535078,4.0394672 1.7715784,0.75039054 5.1532339,1.0642902 8.0773355,-0.66306492 10.246566,1.9500872 l 3.289077,0.8462276 -0.3139,3.3816555 z"
       transform="matrix(0.68314932,0,0,0.68314932,18.880913,15.665375)" />
    <path
       style="fill:#5f4316;fill-opacity:0;fill-rule:nonzero;stroke:#29180d;stroke-width:0.30749;stroke-linejoin:miter;stroke-dasharray:none;stroke-opacity:1"
       id="path1620-8-5-7-3-2-7-0"
       d="M 14.949099,9.1020719 12.335946,11.271303 11.489719,14.560379 8.1080634,14.24648 5.1839617,15.973835 3.0147308,13.360683 -0.27434587,12.514455 0.03955379,9.1327998 -1.6878013,6.2086981 0.92535078,4.0394672 1.7715784,0.75039054 5.1532339,1.0642902 8.0773355,-0.66306492 10.246566,1.9500872 l 3.289077,0.8462276 -0.3139,3.3816555 z"
       transform="matrix(0.56047966,0,0,0.56047966,19.694292,16.604459)" />
    <path
       style="fill:#5f4316;fill-opacity:0;fill-rule:nonzero;stroke:#29180d;stroke-width:0.30749;stroke-linejoin:miter;stroke-dasharray:none;stroke-opacity:1"
       id="path1620-8-5-7-3-2-7-0-0"
       d="M 14.949099,9.1020719 12.335946,11.271303 11.489719,14.560379 8.1080634,14.24648 5.1839617,15.973835 3.0147308,13.360683 -0.27434587,12.514455 0.03955379,9.1327998 -1.6878013,6.2086981 0.92535078,4.0394672 1.7715784,0.75039054 5.1532339,1.0642902 8.0773355,-0.66306492 10.246566,1.9500872 l 3.289077,0.8462276 -0.3139,3.3816555 z"
       transform="matrix(0.44855257,0,0,0.44855257,20.436441,17.461304)" />
    <path
       style="fill:#5f4316;fill-opacity:0;fill-rule:nonzero;stroke:#29180d;stroke-width:0.30749;stroke-linejoin:miter;stroke-dasharray:none;stroke-opacity:1"
       id="path1620-8-5-7-3-2-7-0-0-8"
       d="M 14.949099,9.1020719 12.335946,11.271303 11.489719,14.560379 8.1080634,14.24648 5.1839617,15.973835 3.0147308,13.360683 -0.27434587,12.514455 0.03955379,9.1327998 -1.6878013,6.2086981 0.92535078,4.0394672 1.7715784,0.75039054 5.1532339,1.0642902 8.0773355,-0.66306492 10.246566,1.9500872 l 3.289077,0.8462276 -0.3139,3.3816555 z"
       transform="matrix(0.33713147,0,0,0.33713147,21.175236,18.314275)" />
    <path
       style="fill:#312114;fill-opacity:1;fill-rule:nonzero;stroke:#29180d;stroke-width:0;stroke-linejoin:miter;stroke-dasharray:none;stroke-opacity:1"
       id="path1620-8-5-7-3-2-7-0-0-8-4"
       d="M 14.949099,9.1020719 12.335946,11.271303 11.489719,14.560379 8.1080634,14.24648 5.1839617,15.973835 3.0147308,13.360683 -0.27434587,12.514455 0.03955379,9.1327998 -1.6878013,6.2086981 0.92535078,4.0394672 1.7715784,0.75039054 5.1532339,1.0642902 8.0773355,-0.66306492 10.246566,1.9500872 l 3.289077,0.8462276 -0.3139,3.3816555 z"
       transform="matrix(0.23693543,0,0,0.23693543,21.8396,19.081314)" />
    <path
       d="m 46.639962,5.5847103 2.740837,5.3987127 -1.891145,7.384136 -2.13938,-8.5937929 -5.680479,-8.4949418 0.332536,-4.8587596 z"
       fill="#6d4a2c"
       stroke="#1b1917"
       stroke-width="5.83269"
       stroke-miterlimit="16"
       stroke-linejoin="round"
       id="path4-6"
       style="fill:#4d3f36;fill-opacity:1;stroke:#29180d;stroke-width:1.07541;stroke-dasharray:none;stroke-opacity:1" />
    <path
       id="path36"
       class="st5"
       d="m 17.850328,0.89116963 v 0 c 2.921273,0.03673 8.832769,-2.30737903 6.446293,-5.40980403 -2.643199,-2.8732117 -5.978518,2.525723 -6.446293,5.40980403 z"
       style="fill:#8d6753;fill-opacity:0.8978;stroke-width:0.139345" />
    <path
       id="path38"
       class="st4"
       d="m 26.485107,0.18929463 v 0 c 0.526543,-1.74833403 0.118644,-5.66656873 -2.188486,-4.70792903 -2.229664,1.157221 0.504756,3.98605303 2.188486,4.70792903 z"
       style="fill:#845b45;fill-opacity:0.8971;stroke-width:0.139345" />
    <path
       id="path36-5"
       class="st5"
       d="m 6.9989593,30.453006 v 0 c -1.8496201,-2.261435 -7.44514734,-5.283138 -8.2877465,-1.460792 -0.5019912,3.871673 5.7777348,2.956308 8.2877465,1.460792 z"
       style="fill:#8d6753;fill-opacity:0.8978;stroke-width:0.139345" />
    <path
       id="path38-1"
       class="st4"
       d="m 0.91096406,24.289539 v 0 c -1.6777581,0.72045 -4.41710596,3.551514 -2.19975126,4.702675 2.3196831,0.964174 2.7290427,-2.948851 2.19975126,-4.702675 z"
       style="fill:#845b45;fill-opacity:0.8971;stroke-width:0.139345" />
    <path
       d="m 25.073515,46.512199 -7.443285,-0.267447 -6.819757,-6.435428 10.523368,2.818674 12.52713,-1.051107 5.030766,3.253205 z"
       fill="#6d4a2c"
       stroke="#1b1917"
       stroke-width="5.83269"
       stroke-miterlimit="16"
       stroke-linejoin="round"
       id="path4-60"
       style="fill:#4d3f36;fill-opacity:1;stroke:#29180d;stroke-width:1.32292;stroke-dasharray:none;stroke-opacity:1" />
    <path
       id="path36-0"
       class="st5"
       d="m 46.054888,27.26349 v 0 c -2.883269,0.471102 -8.297905,3.806119 -5.408956,6.447002 3.101972,2.370577 5.449104,-3.525509 5.408956,-6.447002 z"
       style="fill:#8d6753;fill-opacity:0.8978;stroke-width:0.139345" />
    <path
       id="path38-5"
       class="st4"
       d="m 37.673171,29.454116 v 0 c -0.21495,1.813205 0.867148,5.601083 2.972761,4.256376 1.994842,-1.526817 -1.189258,-3.837844 -2.972761,-4.256376 z"
       style="fill:#845b45;fill-opacity:0.8971;stroke-width:0.139345" />
    <path
       d="M 0.65988517,5.0200782 5.3998166,-0.7250932 14.6561,-2.2234604 6.0176378,4.4145484 -0.76817523,14.996915 -6.4104504,17.011033 Z"
       fill="#6d4a2c"
       stroke="#1b1917"
       stroke-width="5.83269"
       stroke-miterlimit="16"
       stroke-linejoin="round"
       id="path4"
       style="fill:#4d3f36;fill-opacity:1;stroke:#29180d;stroke-width:1.32292;stroke-dasharray:none;stroke-opacity:1" />
  </g>
  <metadata
     id="metadata6004">
    <rdf:RDF>
      <cc:Work
         rdf:about="">
        <dc:creator>
          <cc:Agent>
            <dc:title>Radians</dc:title>
          </cc:Agent>
        </dc:creator>
      </cc:Work>
    </rdf:RDF>
  </metadata>
</svg>

<svg xmlns="http://www.w3.org/2000/svg" width="240" height="240" viewBox="0 0 63.5 63.5"><path d="m14.95 9.102-2.614 2.17-.846 3.288-3.382-.314-2.924 1.728-2.17-2.613-3.288-.847.314-3.381-1.728-2.924 2.613-2.17L1.772.75l3.381.314L8.077-.663l2.17 2.613 3.289.846-.314 3.382z" style="fill:#4d3f36;fill-opacity:1;stroke:#29180d;stroke-width:.79375;stroke-linejoin:round;stroke-dasharray:none;stroke-opacity:1" transform="matrix(1.6576 0 0 1.6576 20.759 19.06)"/><path fill="none" d="m14.95 9.102-2.614 2.17-.846 3.288-3.382-.314-2.924 1.728-2.17-2.613-3.288-.847.314-3.381-1.728-2.924 2.613-2.17L1.772.75l3.381.314L8.077-.663l2.17 2.613 3.289.846-.314 3.382z" style="fill:#5f4316;fill-opacity:0;fill-rule:nonzero;stroke:#29180d;stroke-width:.30749;stroke-linejoin:miter;stroke-dasharray:none;stroke-opacity:1" transform="matrix(1.4263 0 0 1.4263 22.293 20.831)"/><path fill="none" d="m14.95 9.102-2.614 2.17-.846 3.288-3.382-.314-2.924 1.728-2.17-2.613-3.288-.847.314-3.381-1.728-2.924 2.613-2.17L1.772.75l3.381.314L8.077-.663l2.17 2.613 3.289.846-.314 3.382z" style="fill:#5f4316;fill-opacity:0;fill-rule:nonzero;stroke:#29180d;stroke-width:.30749;stroke-linejoin:miter;stroke-dasharray:none;stroke-opacity:1" transform="matrix(1.28074 0 0 1.28074 23.258 21.945)"/><path fill="none" d="m14.95 9.102-2.614 2.17-.846 3.288-3.382-.314-2.924 1.728-2.17-2.613-3.288-.847.314-3.381-1.728-2.924 2.613-2.17L1.772.75l3.381.314L8.077-.663l2.17 2.613 3.289.846-.314 3.382z" style="fill:#5f4316;fill-opacity:0;fill-rule:nonzero;stroke:#29180d;stroke-width:.30749;stroke-linejoin:miter;stroke-dasharray:none;stroke-opacity:1" transform="matrix(1.143 0 0 1.143 24.171 23)"/><path fill="none" d="m14.95 9.102-2.614 2.17-.846 3.288-3.382-.314-2.924 1.728-2.17-2.613-3.288-.847.314-3.381-1.728-2.924 2.613-2.17L1.772.75l3.381.314L8.077-.663l2.17 2.613 3.289.846-.314 3.382z" style="fill:#5f4316;fill-opacity:0;fill-rule:nonzero;stroke:#29180d;stroke-width:.30749;stroke-linejoin:miter;stroke-dasharray:none;stroke-opacity:1" transform="matrix(1.00487 0 0 1.00487 25.087 24.057)"/><path fill="none" d="m14.95 9.102-2.614 2.17-.846 3.288-3.382-.314-2.924 1.728-2.17-2.613-3.288-.847.314-3.381-1.728-2.924 2.613-2.17L1.772.75l3.381.314L8.077-.663l2.17 2.613 3.289.846-.314 3.382z" style="fill:#5f4316;fill-opacity:0;fill-rule:nonzero;stroke:#29180d;stroke-width:.30749;stroke-linejoin:miter;stroke-dasharray:none;stroke-opacity:1" transform="translate(26.125 25.255)scale(.84836)"/><path fill="none" d="m14.95 9.102-2.614 2.17-.846 3.288-3.382-.314-2.924 1.728-2.17-2.613-3.288-.847.314-3.381-1.728-2.924 2.613-2.17L1.772.75l3.381.314L8.077-.663l2.17 2.613 3.289.846-.314 3.382z" style="fill:#5f4316;fill-opacity:0;fill-rule:nonzero;stroke:#29180d;stroke-width:.30749;stroke-linejoin:miter;stroke-dasharray:none;stroke-opacity:1" transform="matrix(.68315 0 0 .68315 27.22 26.52)"/><path fill="none" d="m14.95 9.102-2.614 2.17-.846 3.288-3.382-.314-2.924 1.728-2.17-2.613-3.288-.847.314-3.381-1.728-2.924 2.613-2.17L1.772.75l3.381.314L8.077-.663l2.17 2.613 3.289.846-.314 3.382z" style="fill:#5f4316;fill-opacity:0;fill-rule:nonzero;stroke:#29180d;stroke-width:.30749;stroke-linejoin:miter;stroke-dasharray:none;stroke-opacity:1" transform="matrix(.56048 0 0 .56048 28.034 27.46)"/><path fill="none" d="m14.95 9.102-2.614 2.17-.846 3.288-3.382-.314-2.924 1.728-2.17-2.613-3.288-.847.314-3.381-1.728-2.924 2.613-2.17L1.772.75l3.381.314L8.077-.663l2.17 2.613 3.289.846-.314 3.382z" style="fill:#5f4316;fill-opacity:0;fill-rule:nonzero;stroke:#29180d;stroke-width:.30749;stroke-linejoin:miter;stroke-dasharray:none;stroke-opacity:1" transform="matrix(.44855 0 0 .44855 28.776 28.316)"/><path fill="none" d="m14.95 9.102-2.614 2.17-.846 3.288-3.382-.314-2.924 1.728-2.17-2.613-3.288-.847.314-3.381-1.728-2.924 2.613-2.17L1.772.75l3.381.314L8.077-.663l2.17 2.613 3.289.846-.314 3.382z" style="fill:#5f4316;fill-opacity:0;fill-rule:nonzero;stroke:#29180d;stroke-width:.30749;stroke-linejoin:miter;stroke-dasharray:none;stroke-opacity:1" transform="translate(29.515 29.17)scale(.33713)"/><path d="m14.95 9.102-2.614 2.17-.846 3.288-3.382-.314-2.924 1.728-2.17-2.613-3.288-.847.314-3.381-1.728-2.924 2.613-2.17L1.772.75l3.381.314L8.077-.663l2.17 2.613 3.289.846-.314 3.382z" style="fill:#312114;fill-opacity:1;fill-rule:nonzero;stroke:#29180d;stroke-width:0;stroke-linejoin:miter;stroke-dasharray:none;stroke-opacity:1" transform="matrix(.23694 0 0 .23694 30.179 29.936)"/><path fill="#6d4a2c" stroke="#1b1917" stroke-linejoin="round" stroke-miterlimit="16" stroke-width="5.833" d="m46.64 5.585 2.74 5.398-1.89 7.385-2.14-8.594-5.68-8.495.332-4.859z" style="fill:#4d3f36;fill-opacity:1;stroke:#29180d;stroke-width:1.07541;stroke-dasharray:none;stroke-opacity:1" transform="translate(8.34 10.855)"/><path d="M17.85.891c2.922.037 8.833-2.307 6.447-5.41-2.644-2.873-5.979 2.526-6.447 5.41" class="st5" style="fill:#8d6753;fill-opacity:.8978;stroke-width:.139345" transform="translate(8.34 10.855)"/><path d="M26.485.19c.527-1.749.119-5.667-2.188-4.709C22.067-3.36 24.8-.533 26.485.19" class="st4" style="fill:#845b45;fill-opacity:.8971;stroke-width:.139345" transform="translate(8.34 10.855)"/><path d="M6.999 30.453c-1.85-2.261-7.445-5.283-8.288-1.46-.502 3.87 5.778 2.956 8.288 1.46" class="st5" style="fill:#8d6753;fill-opacity:.8978;stroke-width:.139345" transform="translate(8.34 10.855)"/><path d="M.911 24.29c-1.678.72-4.417 3.551-2.2 4.702 2.32.964 2.73-2.949 2.2-4.702" class="st4" style="fill:#845b45;fill-opacity:.8971;stroke-width:.139345" transform="translate(8.34 10.855)"/><path fill="#6d4a2c" stroke="#1b1917" stroke-linejoin="round" stroke-miterlimit="16" stroke-width="5.833" d="m25.074 46.512-7.444-.267-6.82-6.436 10.524 2.819 12.527-1.051 5.03 3.253z" style="fill:#4d3f36;fill-opacity:1;stroke:#29180d;stroke-width:1.32292;stroke-dasharray:none;stroke-opacity:1" transform="translate(8.34 10.855)"/><path d="M46.055 27.263c-2.883.472-8.298 3.807-5.41 6.447 3.103 2.371 5.45-3.525 5.41-6.447" class="st5" style="fill:#8d6753;fill-opacity:.8978;stroke-width:.139345" transform="translate(8.34 10.855)"/><path d="M37.673 29.454c-.215 1.813.867 5.601 2.973 4.256 1.995-1.526-1.19-3.837-2.973-4.256" class="st4" style="fill:#845b45;fill-opacity:.8971;stroke-width:.139345" transform="translate(8.34 10.855)"/><path fill="#6d4a2c" stroke="#1b1917" stroke-linejoin="round" stroke-miterlimit="16" stroke-width="5.833" d="M.66 5.02 5.4-.725l9.256-1.498-8.638 6.638-6.786 10.582-5.642 2.014Z" style="fill:#4d3f36;fill-opacity:1;stroke:#29180d;stroke-width:1.32292;stroke-dasharray:none;stroke-opacity:1" transform="translate(8.34 10.855)"/></svg>
